Papirus/64x64/apps/olympus.svg

<?xml version="1.0" encoding="UTF-8" standalone="no"?>
<svg
   id="_图层_1"
   version="1.1"
   viewBox="0 0 64 64" width="64" height="64"
   sodipodi:docname="olympus.svg"
   xml:space="preserve"
   inkscape:version="1.4 (e7c3feb100, 2024-10-09)"
   xmlns:inkscape="http://www.inkscape.org/namespaces/inkscape"
   xmlns:sodipodi="http://sodipodi.sourceforge.net/DTD/sodipodi-0.dtd"
   xmlns="http://www.w3.org/2000/svg"
   xmlns:svg="http://www.w3.org/2000/svg"><sodipodi:namedview
     id="namedview26"
     pagecolor="#505050"
     bordercolor="#eeeeee"
     borderopacity="1"
     inkscape:showpageshadow="0"
     inkscape:pageopacity="0"
     inkscape:pagecheckerboard="0"
     inkscape:deskcolor="#505050"
     inkscape:zoom="10.6875"
     inkscape:cx="32"
     inkscape:cy="32"
     inkscape:window-width="1920"
     inkscape:window-height="939"
     inkscape:window-x="0"
     inkscape:window-y="34"
     inkscape:window-maximized="1"
     inkscape:current-layer="_图层_1"
     showguides="true"><sodipodi:guide
       position="24.129209,43.688782"
       orientation="1,0"
       id="guide47"
       inkscape:locked="false" /><sodipodi:guide
       position="39.990611,54.528988"
       orientation="1,0"
       id="guide48"
       inkscape:locked="false" /><sodipodi:guide
       position="31.294665,46.979418"
       orientation="0,-1"
       id="guide49"
       inkscape:locked="false" /><sodipodi:guide
       position="22.407535,30.743878"
       orientation="0,-1"
       id="guide50"
       inkscape:locked="false" /></sodipodi:namedview><!-- Generator: Adobe Illustrator 29.0.1, SVG Export Plug-In . SVG Version: 2.1.0 Build 192)  --><defs
     id="defs6"><style
       id="style1">
      .st0 {
        fill-opacity: .5;
      }

      .st0, .st1, .st2, .st3, .st4, .st5, .st6, .st7 {
        fill: #fff;
      }

      .st8 {
        fill: #133c9a;
      }

      .st2, .st9 {
        display: none;
      }

      .st3 {
        fill-opacity: .2;
      }

      .st4 {
        fill-opacity: .9;
      }

      .st10 {
        fill: #3370ff;
      }

      .st11 {
        fill: url(#_未命名的渐变_3);
      }

      .st12 {
        fill: url(#_未命名的渐变);
      }

      .st5 {
        fill-opacity: .3;
      }

      .st6 {
        fill-opacity: 0;
      }

      .st7 {
        fill-opacity: .7;
      }

      .st13 {
        fill: #00d6b9;
      }

      .st14 {
        fill: url(#_未命名的渐变_2);
      }
    </style><radialGradient
       id="_未命名的渐变"
       data-name="未命名的渐变"
       cx="123.9"
       cy="-40.2"
       fx="123.9"
       fy="-40.2"
       r="59.4"
       gradientTransform="translate(-26.8 25.5) scale(.6 -.7)"
       gradientUnits="userSpaceOnUse"><stop
         offset="0"
         stop-color="#db202e"
         id="stop1" /><stop
         offset="1"
         stop-color="#e01b24"
         id="stop2" /></radialGradient><radialGradient
       id="_未命名的渐变_2"
       data-name="未命名的渐变 2"
       cx="67.6"
       cy="26.8"
       fx="67.6"
       fy="26.8"
       r="105.2"
       gradientTransform="translate(-26.6 25.3) scale(.6 -.7)"
       gradientUnits="userSpaceOnUse"><stop
         offset="0"
         stop-color="#ffb648"
         id="stop3" /><stop
         offset="1"
         stop-color="#ff7800"
         stop-opacity="0"
         id="stop4" /></radialGradient><radialGradient
       id="_未命名的渐变_3"
       data-name="未命名的渐变 3"
       cx="61.7"
       cy="18.6"
       fx="61.7"
       fy="18.6"
       r="68"
       gradientTransform="translate(-26.8 25.8) scale(.6 -.7)"
       gradientUnits="userSpaceOnUse"><stop
         offset="0"
         stop-color="#c64600"
         id="stop5" /><stop
         offset="1"
         stop-color="#a51d2d"
         id="stop6" /></radialGradient></defs><path
     class="st1"
     d="M47.5,64.1H13.8c-7.6,0-13.8-6.3-13.8-13.8V13.7C0,6.2,6.2,0,13.7,0h36.6c7.5,0,13.7,6.2,13.7,13.7v36.6c0,7.5-6.2,13.7-13.7,13.7h-2.9.1Z"
     id="path6"
     style="fill:#3b2d4a;fill-opacity:1" /><g
     id="g62"
     transform="matrix(1.1453634,0,0,1.1460962,-4.6048454,-4.6399405)"><path
       style="opacity:0.2"
       d="m 31.78125,18.999778 c -0.408542,-0.03643 -0.761773,0.831596 -1.632812,2.835938 -0.628185,1.445508 -1.429837,3.435439 -1.78125,4.425781 l -0.640626,1.800781 -1.308593,1.65625 c -0.72062,0.910402 -1.96745,2.60064 -2.769531,3.753906 -0.802095,1.153254 -1.466471,2.110234 -1.480469,2.128906 -0.014,0.0188 -0.170961,-0.1102 -0.347657,-0.289062 -0.25561,-0.25878 -0.376735,-0.324219 -0.589843,-0.324219 -0.344418,0 -0.400649,0.06488 -0.976563,1.21875 l -0.476562,0.960938 -0.40625,-0.476563 c -0.387336,-0.448564 -0.423508,-0.471502 -0.71875,-0.449218 l -0.308594,0.02734 -3.035156,3.726563 c -1.734211,2.130926 -3.09759,3.873302 -3.183594,4.070312 -0.21005,0.48122 -0.17146,0.621579 0.230469,0.789063 0.324353,0.1352 1.174661,0.140411 19.964843,0.144531 13.71191,0.0028 19.64138,-0.02076 19.675782,-0.07813 0.02704,-0.04514 -0.07508,-0.378427 -0.226563,-0.742187 -0.254,-0.609907 -0.439477,-0.864243 -2.417969,-3.261719 -1.619706,-1.962708 -2.324689,-2.880374 -2.867187,-3.742188 -0.39523,-0.627876 -0.803366,-1.238013 -0.910156,-1.355469 -0.297782,-0.32757 -0.592327,-0.292655 -1.046875,0.128907 l -0.375,0.347656 -1.0625,-1.105469 -1.0625,-1.097656 -1.515625,-2.640625 c -0.831386,-1.452252 -1.573242,-2.711059 -1.652344,-2.792969 -0.221534,-0.229216 -0.539338,-0.18422 -0.914063,0.125 -0.181018,0.1494 -0.434452,0.346718 -0.5625,0.4375 l -0.234374,0.164063 -0.640626,-0.90625 -0.640624,-0.914063 -0.769532,-2.601562 c -0.423576,-1.430916 -0.82884,-2.664582 -0.902344,-2.75 -0.07354,-0.08544 -0.563605,-0.810172 -1.085937,-1.605469 -0.660292,-1.005358 -1.010369,-1.581041 -1.328125,-1.609375 z m 0.253906,12 c 0.435435,1.08e-4 0.873951,0.01704 1.025391,0.05273 0.02163,0.0051 0.03773,0.0096 0.04687,0.01563 0.08097,0.05119 0.121096,0.251019 0.140625,0.679688 l 0.0293,0.603515 0.515625,0.201172 c 0.285102,0.111374 0.553415,0.199209 0.591797,0.199219 0.03842,3.5e-5 0.220533,-0.150572 0.40625,-0.339844 0.444051,-0.45248 0.680315,-0.461829 1.189453,-0.04102 0.400534,0.331045 0.839977,0.849008 0.912109,1.076172 0.05968,0.188029 -0.06779,0.422353 -0.433594,0.802734 l -0.298828,0.3125 0.1875,0.416016 c 0.10113,0.22852 0.201444,0.470086 0.22461,0.539062 0.03331,0.09919 0.17154,0.133997 0.662109,0.15625 0.443021,0.02016 0.640013,0.05925 0.691406,0.140625 0.03973,0.0627 0.07419,0.546507 0.07422,1.072266 2.1e-5,0.525753 -0.03464,1.003724 -0.07422,1.066406 -0.0513,0.08112 -0.250298,0.122793 -0.685547,0.142578 l -0.611328,0.0293 -0.117187,0.355469 c -0.06649,0.195419 -0.16847,0.43602 -0.226563,0.541015 -0.10056,0.181802 -0.08976,0.217241 0.304688,0.63086 0.552002,0.578783 0.549328,0.725928 -0.06055,1.451172 -0.36945,0.439336 -0.808253,0.750015 -1.054688,0.75 -0.121889,-3e-6 -0.330459,-0.145923 -0.615234,-0.427735 l -0.433594,-0.427734 -0.292969,0.150391 c -0.163249,0.08211 -0.424537,0.190562 -0.578124,0.240234 l -0.28125,0.08984 -0.02539,0.689453 c -0.01956,0.50619 -0.05624,0.704489 -0.140625,0.757812 -0.06307,0.03981 -0.546597,0.07425 -1.072266,0.07422 -0.525678,-3.8e-5 -1.003328,-0.03439 -1.066406,-0.07422 -0.08465,-0.05346 -0.124596,-0.253766 -0.144531,-0.767578 -0.0218,-0.563142 -0.05046,-0.704044 -0.152344,-0.738281 -0.06931,-0.02325 -0.312086,-0.128041 -0.539063,-0.228516 l -0.412109,-0.177734 -0.431641,0.410156 c -0.236996,0.226095 -0.502644,0.43395 -0.59375,0.462891 -0.280335,0.08897 -0.817457,-0.281687 -1.355468,-0.9375 -0.410085,-0.499875 -0.377377,-0.712374 0.183594,-1.267578 l 0.453124,-0.451172 -0.136718,-0.273438 c -0.07587,-0.151052 -0.182749,-0.403021 -0.232422,-0.55664 l -0.08594,-0.277344 -0.689453,-0.02734 c -0.506118,-0.01962 -0.70839,-0.05619 -0.761719,-0.140625 -0.03981,-0.06309 -0.07029,-0.542603 -0.07031,-1.068359 -2.2e-5,-0.525755 0.03442,-1.013091 0.07422,-1.076172 0.05343,-0.08464 0.253835,-0.116844 0.767578,-0.136719 0.563044,-0.02173 0.700149,-0.05046 0.734375,-0.152344 0.02323,-0.06933 0.131162,-0.316155 0.232422,-0.544922 l 0.18164,-0.416015 -0.421875,-0.427735 c -0.278433,-0.281413 -0.421868,-0.491584 -0.421875,-0.613281 -1.4e-5,-0.246473 0.30683,-0.681282 0.746094,-1.050781 0.726719,-0.611254 0.877205,-0.617345 1.462891,-0.05859 0.242348,0.231209 0.46236,0.400922 0.486328,0.376953 0.02397,-0.024 0.240626,-0.124965 0.486328,-0.224609 l 0.445313,-0.181641 0.04297,-0.621093 c 0.02826,-0.425135 0.07587,-0.641099 0.152344,-0.689454 0.07336,-0.04662 0.568847,-0.07062 1.066406,-0.07031 z m -0.03516,4 a 2.0000003,2.0000003 0 0 0 -2,2 2.0000003,2.0000003 0 0 0 2,2 2.0000003,2.0000003 0 0 0 2,-2 2.0000003,2.0000003 0 0 0 -2,-2 z"
       id="path3" /><path
       style="fill:#ffffff"
       d="m 31.78125,18 c -0.408542,-0.03643 -0.761773,0.831596 -1.632812,2.835938 -0.628185,1.445508 -1.429837,3.435439 -1.78125,4.425781 l -0.640626,1.800781 -1.308593,1.65625 c -0.72062,0.910402 -1.96745,2.60064 -2.769531,3.753906 -0.802095,1.153254 -1.466471,2.110234 -1.480469,2.128906 -0.014,0.0188 -0.170961,-0.1102 -0.347657,-0.289062 -0.25561,-0.25878 -0.376735,-0.324219 -0.589843,-0.324219 -0.344418,0 -0.400649,0.06488 -0.976563,1.21875 l -0.476562,0.960938 -0.40625,-0.476563 c -0.387336,-0.448564 -0.423508,-0.471502 -0.71875,-0.449218 l -0.308594,0.02734 -3.035156,3.726563 c -1.734211,2.130926 -3.09759,3.873302 -3.183594,4.070312 -0.21005,0.48122 -0.17146,0.621579 0.230469,0.789063 0.324353,0.1352 1.174661,0.140411 19.964843,0.144531 13.71191,0.0028 19.64138,-0.02076 19.675782,-0.07813 0.02704,-0.04514 -0.07508,-0.378427 -0.226563,-0.742187 -0.254,-0.609907 -0.439477,-0.864243 -2.417969,-3.261719 -1.619706,-1.962708 -2.324689,-2.880374 -2.867187,-3.742188 -0.39523,-0.627876 -0.803366,-1.238013 -0.910156,-1.355469 -0.297782,-0.32757 -0.592327,-0.292655 -1.046875,0.128907 l -0.375,0.347656 -1.0625,-1.105469 -1.0625,-1.097656 -1.515625,-2.640625 c -0.831386,-1.452252 -1.573242,-2.711059 -1.652344,-2.792969 -0.221534,-0.229216 -0.539338,-0.18422 -0.914063,0.125 -0.181018,0.1494 -0.434452,0.346718 -0.5625,0.4375 l -0.234374,0.164063 -0.640626,-0.90625 -0.640624,-0.914063 -0.769532,-2.601562 c -0.423576,-1.430916 -0.82884,-2.664582 -0.902344,-2.75 -0.07354,-0.08544 -0.563605,-0.810172 -1.085937,-1.605469 C 32.449083,18.604017 32.099006,18.028334 31.78125,18 Z m 0.253906,12 c 0.435435,1.08e-4 0.873951,0.01704 1.025391,0.05273 0.02163,0.0051 0.03773,0.0096 0.04687,0.01563 0.08097,0.05119 0.121096,0.251019 0.140625,0.679688 l 0.0293,0.603515 0.515625,0.201172 c 0.285102,0.111374 0.553415,0.199209 0.591797,0.199219 0.03842,3.5e-5 0.220533,-0.150572 0.40625,-0.339844 0.444051,-0.45248 0.680315,-0.461829 1.189453,-0.04102 0.400534,0.331045 0.839977,0.849008 0.912109,1.076172 0.05968,0.188029 -0.06779,0.422353 -0.433594,0.802734 l -0.298828,0.3125 0.1875,0.416016 c 0.10113,0.22852 0.201444,0.470086 0.22461,0.539062 0.03331,0.09919 0.17154,0.133997 0.662109,0.15625 0.443021,0.02016 0.640013,0.05925 0.691406,0.140625 0.03973,0.0627 0.07419,0.546507 0.07422,1.072266 2.1e-5,0.525753 -0.03464,1.003724 -0.07422,1.066406 -0.0513,0.08112 -0.250298,0.122793 -0.685547,0.142578 l -0.611328,0.0293 -0.117187,0.355469 c -0.06649,0.195419 -0.16847,0.43602 -0.226563,0.541015 -0.10056,0.181802 -0.08976,0.217241 0.304688,0.63086 0.552002,0.578783 0.549328,0.725928 -0.06055,1.451172 -0.36945,0.439336 -0.808253,0.750015 -1.054688,0.75 -0.121889,-3e-6 -0.330459,-0.145923 -0.615234,-0.427735 l -0.433594,-0.427734 -0.292969,0.150391 c -0.163249,0.08211 -0.424537,0.190562 -0.578124,0.240234 l -0.28125,0.08984 -0.02539,0.689453 c -0.01956,0.50619 -0.05624,0.704489 -0.140625,0.757812 -0.06307,0.03981 -0.546597,0.07425 -1.072266,0.07422 -0.525678,-3.8e-5 -1.003328,-0.03439 -1.066406,-0.07422 -0.08465,-0.05346 -0.124596,-0.253766 -0.144531,-0.767578 -0.0218,-0.563142 -0.05046,-0.704044 -0.152344,-0.738281 -0.06931,-0.02325 -0.312086,-0.128041 -0.539063,-0.228516 l -0.412109,-0.177734 -0.431641,0.410156 c -0.236996,0.226095 -0.502644,0.43395 -0.59375,0.462891 -0.280335,0.08897 -0.817457,-0.281687 -1.355468,-0.9375 -0.410085,-0.499875 -0.377377,-0.712374 0.183594,-1.267578 l 0.453124,-0.451172 -0.136718,-0.273438 c -0.07587,-0.151052 -0.182749,-0.403021 -0.232422,-0.55664 l -0.08594,-0.277344 -0.689453,-0.02734 c -0.506118,-0.01962 -0.70839,-0.05619 -0.761719,-0.140625 -0.03981,-0.06309 -0.07029,-0.542603 -0.07031,-1.068359 -2.2e-5,-0.525755 0.03442,-1.013091 0.07422,-1.076172 0.05343,-0.08464 0.253835,-0.116844 0.767578,-0.136719 0.563044,-0.02173 0.700149,-0.05046 0.734375,-0.152344 0.02323,-0.06933 0.131162,-0.316155 0.232422,-0.544922 l 0.18164,-0.416015 -0.421875,-0.427735 c -0.278433,-0.281413 -0.421868,-0.491584 -0.421875,-0.613281 -1.4e-5,-0.246473 0.30683,-0.681282 0.746094,-1.050781 0.726719,-0.611254 0.877205,-0.617345 1.462891,-0.05859 0.242348,0.231209 0.46236,0.400922 0.486328,0.376953 0.02397,-0.024 0.240626,-0.124965 0.486328,-0.224609 l 0.445313,-0.181641 0.04297,-0.621093 c 0.02826,-0.425135 0.07587,-0.641099 0.152344,-0.689454 C 31.04211,30.023692 31.537597,29.99969 32.035156,30 Z M 32,34 a 2.0000003,2.0000003 0 0 0 -2,2 2.0000003,2.0000003 0 0 0 2,2 2.0000003,2.0000003 0 0 0 2,-2 2.0000003,2.0000003 0 0 0 -2,-2 z"
       id="path4-1" /></g></svg>

<svg xmlns="http://www.w3.org/2000/svg" width="64" height="64" version="1.1">
 <rect style="opacity:0.2" width="56" height="56" x="4" y="5" rx="14" ry="14"/>
 <rect style="fill:#3b2d4a" width="56" height="56" x="4" y="4" rx="14" ry="14"/>
 <path style="opacity:0.1;fill:#ffffff" d="M 18 4 C 10.244 4 4 10.244 4 18 L 4 19 C 4 11.244 10.244 5 18 5 L 46 5 C 53.756 5 60 11.244 60 19 L 60 18 C 60 10.244 53.756 4 46 4 L 18 4 z"/>
 <path style="opacity:0.2" d="m 31.78125,18.999778 c -0.408542,-0.03643 -0.761773,0.831596 -1.632812,2.835938 -0.628185,1.445508 -1.429837,3.435439 -1.78125,4.425781 l -0.640626,1.800781 -1.308593,1.65625 c -0.72062,0.910402 -1.96745,2.60064 -2.769531,3.753906 -0.802095,1.153254 -1.466471,2.110234 -1.480469,2.128906 -0.014,0.0188 -0.170961,-0.1102 -0.347657,-0.289062 -0.25561,-0.25878 -0.376735,-0.324219 -0.589843,-0.324219 -0.344418,0 -0.400649,0.06488 -0.976563,1.21875 l -0.476562,0.960938 -0.40625,-0.476563 c -0.387336,-0.448564 -0.423508,-0.471502 -0.71875,-0.449218 l -0.308594,0.02734 -3.035156,3.726563 c -1.734211,2.130926 -3.09759,3.873302 -3.183594,4.070312 -0.21005,0.48122 -0.17146,0.621579 0.230469,0.789063 0.324353,0.1352 1.174661,0.140411 19.964843,0.144531 13.71191,0.0028 19.64138,-0.02076 19.675782,-0.07813 0.02704,-0.04514 -0.07508,-0.378427 -0.226563,-0.742187 -0.254,-0.609907 -0.439477,-0.864243 -2.417969,-3.261719 -1.619706,-1.962708 -2.324689,-2.880374 -2.867187,-3.742188 -0.39523,-0.627876 -0.803366,-1.238013 -0.910156,-1.355469 -0.297782,-0.32757 -0.592327,-0.292655 -1.046875,0.128907 l -0.375,0.347656 -1.0625,-1.105469 -1.0625,-1.097656 -1.515625,-2.640625 c -0.831386,-1.452252 -1.573242,-2.711059 -1.652344,-2.792969 -0.221534,-0.229216 -0.539338,-0.18422 -0.914063,0.125 -0.181018,0.1494 -0.434452,0.346718 -0.5625,0.4375 l -0.234374,0.164063 -0.640626,-0.90625 -0.640624,-0.914063 -0.769532,-2.601562 c -0.423576,-1.430916 -0.82884,-2.664582 -0.902344,-2.75 -0.07354,-0.08544 -0.563605,-0.810172 -1.085937,-1.605469 -0.660292,-1.005358 -1.010369,-1.581041 -1.328125,-1.609375 z m 0.253906,12 c 0.435435,1.08e-4 0.873951,0.01704 1.025391,0.05273 0.02163,0.0051 0.03773,0.0096 0.04687,0.01563 0.08097,0.05119 0.121096,0.251019 0.140625,0.679688 l 0.0293,0.603515 0.515625,0.201172 c 0.285102,0.111374 0.553415,0.199209 0.591797,0.199219 0.03842,3.5e-5 0.220533,-0.150572 0.40625,-0.339844 0.444051,-0.45248 0.680315,-0.461829 1.189453,-0.04102 0.400534,0.331045 0.839977,0.849008 0.912109,1.076172 0.05968,0.188029 -0.06779,0.422353 -0.433594,0.802734 l -0.298828,0.3125 0.1875,0.416016 c 0.10113,0.22852 0.201444,0.470086 0.22461,0.539062 0.03331,0.09919 0.17154,0.133997 0.662109,0.15625 0.443021,0.02016 0.640013,0.05925 0.691406,0.140625 0.03973,0.0627 0.07419,0.546507 0.07422,1.072266 2.1e-5,0.525753 -0.03464,1.003724 -0.07422,1.066406 -0.0513,0.08112 -0.250298,0.122793 -0.685547,0.142578 l -0.611328,0.0293 -0.117187,0.355469 c -0.06649,0.195419 -0.16847,0.43602 -0.226563,0.541015 -0.10056,0.181802 -0.08976,0.217241 0.304688,0.63086 0.552002,0.578783 0.549328,0.725928 -0.06055,1.451172 -0.36945,0.439336 -0.808253,0.750015 -1.054688,0.75 -0.121889,-3e-6 -0.330459,-0.145923 -0.615234,-0.427735 l -0.433594,-0.427734 -0.292969,0.150391 c -0.163249,0.08211 -0.424537,0.190562 -0.578124,0.240234 l -0.28125,0.08984 -0.02539,0.689453 c -0.01956,0.50619 -0.05624,0.704489 -0.140625,0.757812 -0.06307,0.03981 -0.546597,0.07425 -1.072266,0.07422 -0.525678,-3.8e-5 -1.003328,-0.03439 -1.066406,-0.07422 -0.08465,-0.05346 -0.124596,-0.253766 -0.144531,-0.767578 -0.0218,-0.563142 -0.05046,-0.704044 -0.152344,-0.738281 -0.06931,-0.02325 -0.312086,-0.128041 -0.539063,-0.228516 l -0.412109,-0.177734 -0.431641,0.410156 c -0.236996,0.226095 -0.502644,0.43395 -0.59375,0.462891 -0.280335,0.08897 -0.817457,-0.281687 -1.355468,-0.9375 -0.410085,-0.499875 -0.377377,-0.712374 0.183594,-1.267578 l 0.453124,-0.451172 -0.136718,-0.273438 c -0.07587,-0.151052 -0.182749,-0.403021 -0.232422,-0.55664 l -0.08594,-0.277344 -0.689453,-0.02734 c -0.506118,-0.01962 -0.70839,-0.05619 -0.761719,-0.140625 -0.03981,-0.06309 -0.07029,-0.542603 -0.07031,-1.068359 -2.2e-5,-0.525755 0.03442,-1.013091 0.07422,-1.076172 0.05343,-0.08464 0.253835,-0.116844 0.767578,-0.136719 0.563044,-0.02173 0.700149,-0.05046 0.734375,-0.152344 0.02323,-0.06933 0.131162,-0.316155 0.232422,-0.544922 l 0.18164,-0.416015 -0.421875,-0.427735 c -0.278433,-0.281413 -0.421868,-0.491584 -0.421875,-0.613281 -1.4e-5,-0.246473 0.30683,-0.681282 0.746094,-1.050781 0.726719,-0.611254 0.877205,-0.617345 1.462891,-0.05859 0.242348,0.231209 0.46236,0.400922 0.486328,0.376953 0.02397,-0.024 0.240626,-0.124965 0.486328,-0.224609 l 0.445313,-0.181641 0.04297,-0.621093 c 0.02826,-0.425135 0.07587,-0.641099 0.152344,-0.689454 0.07336,-0.04662 0.568847,-0.07062 1.066406,-0.07031 z m -0.03516,4 a 2.0000003,2.0000003 0 0 0 -2,2 2.0000003,2.0000003 0 0 0 2,2 2.0000003,2.0000003 0 0 0 2,-2 2.0000003,2.0000003 0 0 0 -2,-2 z"/>
 <path style="fill:#ffffff" d="M 31.78125 18 C 31.372708 17.96357 31.019477 18.831596 30.148438 20.835938 C 29.520253 22.281446 28.718601 24.271377 28.367188 25.261719 L 27.726562 27.0625 L 26.417969 28.71875 C 25.697349 29.629152 24.450519 31.31939 23.648438 32.472656 C 22.846343 33.62591 22.181967 34.58289 22.167969 34.601562 C 22.153969 34.620362 21.997008 34.491362 21.820312 34.3125 C 21.564702 34.05372 21.443577 33.988281 21.230469 33.988281 C 20.886051 33.988281 20.82982 34.053161 20.253906 35.207031 L 19.777344 36.167969 L 19.371094 35.691406 C 18.983758 35.242842 18.947586 35.219904 18.652344 35.242188 L 18.34375 35.269531 L 15.308594 38.996094 C 13.574383 41.12702 12.211004 42.869396 12.125 43.066406 C 11.91495 43.547626 11.95354 43.687985 12.355469 43.855469 C 12.679822 43.990669 13.53013 43.99588 32.320312 44 C 46.032222 44.0028 51.961692 43.979235 51.996094 43.921875 C 52.023134 43.876735 51.921013 43.543448 51.769531 43.179688 C 51.515531 42.569781 51.330054 42.315445 49.351562 39.917969 C 47.731856 37.955261 47.026873 37.037595 46.484375 36.175781 C 46.089145 35.547905 45.681009 34.937768 45.574219 34.820312 C 45.276437 34.492742 44.981892 34.527657 44.527344 34.949219 L 44.152344 35.296875 L 43.089844 34.191406 L 42.027344 33.09375 L 40.511719 30.453125 C 39.680333 29.000873 38.938477 27.742066 38.859375 27.660156 C 38.637841 27.43094 38.320037 27.475936 37.945312 27.785156 C 37.764294 27.934556 37.51086 28.131874 37.382812 28.222656 L 37.148438 28.386719 L 36.507812 27.480469 L 35.867188 26.566406 L 35.097656 23.964844 C 34.67408 22.533928 34.268816 21.300262 34.195312 21.214844 C 34.121772 21.129404 33.631707 20.404672 33.109375 19.609375 C 32.449083 18.604017 32.099006 18.028334 31.78125 18 z M 32.035156 30 C 32.470591 30.000108 32.909107 30.017044 33.060547 30.052734 C 33.082177 30.057834 33.098282 30.062359 33.107422 30.068359 C 33.188392 30.119549 33.228518 30.319378 33.248047 30.748047 L 33.277344 31.351562 L 33.792969 31.552734 C 34.078071 31.664108 34.346384 31.751943 34.384766 31.751953 C 34.423186 31.751988 34.605299 31.601381 34.791016 31.412109 C 35.235067 30.959629 35.471331 30.95028 35.980469 31.371094 C 36.381003 31.702139 36.820446 32.220102 36.892578 32.447266 C 36.952258 32.635295 36.824786 32.869619 36.458984 33.25 L 36.160156 33.5625 L 36.347656 33.978516 C 36.448786 34.207036 36.5491 34.448602 36.572266 34.517578 C 36.605576 34.616768 36.743806 34.651575 37.234375 34.673828 C 37.677396 34.693988 37.874388 34.733079 37.925781 34.814453 C 37.965511 34.877153 37.99997 35.36096 38 35.886719 C 38.000021 36.412472 37.965361 36.890443 37.925781 36.953125 C 37.874481 37.034245 37.675483 37.075918 37.240234 37.095703 L 36.628906 37.125 L 36.511719 37.480469 C 36.445229 37.675888 36.343249 37.916489 36.285156 38.021484 C 36.184596 38.203286 36.195399 38.238725 36.589844 38.652344 C 37.141846 39.231127 37.139172 39.378272 36.529297 40.103516 C 36.159847 40.542852 35.721044 40.853531 35.474609 40.853516 C 35.35272 40.853513 35.14415 40.707593 34.859375 40.425781 L 34.425781 39.998047 L 34.132812 40.148438 C 33.969563 40.230548 33.708275 40.339 33.554688 40.388672 L 33.273438 40.478516 L 33.248047 41.167969 C 33.228487 41.674159 33.191806 41.872458 33.107422 41.925781 C 33.044352 41.965591 32.560825 42.00003 32.035156 42 C 31.509478 41.999962 31.031828 41.965611 30.96875 41.925781 C 30.8841 41.872321 30.844154 41.672015 30.824219 41.158203 C 30.802419 40.595061 30.773759 40.454159 30.671875 40.419922 C 30.602565 40.396672 30.359789 40.291881 30.132812 40.191406 L 29.720703 40.013672 L 29.289062 40.423828 C 29.052066 40.649923 28.786418 40.857778 28.695312 40.886719 C 28.414977 40.975689 27.877855 40.605032 27.339844 39.949219 C 26.929759 39.449344 26.962467 39.236845 27.523438 38.681641 L 27.976562 38.230469 L 27.839844 37.957031 C 27.763974 37.805979 27.657095 37.55401 27.607422 37.400391 L 27.521484 37.123047 L 26.832031 37.095703 C 26.325913 37.076083 26.123641 37.039513 26.070312 36.955078 C 26.030503 36.891988 26.00002 36.412475 26 35.886719 C 25.999978 35.360964 26.034419 34.873628 26.074219 34.810547 C 26.127649 34.725907 26.328054 34.693703 26.841797 34.673828 C 27.404841 34.652098 27.541946 34.623366 27.576172 34.521484 C 27.599402 34.452154 27.707334 34.205329 27.808594 33.976562 L 27.990234 33.560547 L 27.568359 33.132812 C 27.289926 32.851399 27.146491 32.641228 27.146484 32.519531 C 27.14647 32.273058 27.453314 31.838249 27.892578 31.46875 C 28.619297 30.857496 28.769783 30.851405 29.355469 31.410156 C 29.597817 31.641365 29.817829 31.811078 29.841797 31.787109 C 29.865767 31.763109 30.082423 31.662144 30.328125 31.5625 L 30.773438 31.380859 L 30.816406 30.759766 C 30.844666 30.334631 30.892278 30.118667 30.96875 30.070312 C 31.04211 30.023692 31.537597 29.99969 32.035156 30 z M 32 34 A 2.0000003 2.0000003 0 0 0 30 36 A 2.0000003 2.0000003 0 0 0 32 38 A 2.0000003 2.0000003 0 0 0 34 36 A 2.0000003 2.0000003 0 0 0 32 34 z"/>
</svg>
